img/Layouts.svg

<svg width="16" height="16" viewBox="0 0 16 16" fill="none" xmlns="http://www.w3.org/2000/svg">
<path fill-rule="evenodd" clip-rule="evenodd" d="M7.70184 0.736398C7.88953 0.642555 8.11044 0.642555 8.29813 0.736398L14.9648 4.06973C15.1906 4.18266 15.3333 4.4135 15.3333 4.66602C15.3333 4.91853 15.1906 5.14937 14.9648 5.2623L8.29813 8.59563C8.11044 8.68948 7.88953 8.68948 7.70184 8.59563L1.03517 5.2623C0.809318 5.14937 0.66665 4.91853 0.66665 4.66602C0.66665 4.4135 0.809318 4.18266 1.03517 4.06973L7.70184 0.736398ZM2.82403 4.66602L7.99998 7.25399L13.1759 4.66602L7.99998 2.07804L2.82403 4.66602Z" fill="#9A9CA5"/>
<path fill-rule="evenodd" clip-rule="evenodd" d="M0.737032 7.70121C0.901691 7.37189 1.30214 7.2384 1.63146 7.40306L7.99998 10.5873L14.3685 7.40306C14.6978 7.2384 15.0983 7.37189 15.2629 7.70121C15.4276 8.03052 15.2941 8.43097 14.9648 8.59563L8.29813 11.929C8.11044 12.0228 7.88953 12.0228 7.70184 11.929L1.03517 8.59563C0.705855 8.43097 0.572372 8.03052 0.737032 7.70121Z" fill="#9A9CA5"/>
<path fill-rule="evenodd" clip-rule="evenodd" d="M0.737032 11.0345C0.901691 10.7052 1.30214 10.5717 1.63146 10.7364L7.99998 13.9207L14.3685 10.7364C14.6978 10.5717 15.0983 10.7052 15.2629 11.0345C15.4276 11.3639 15.2941 11.7643 14.9648 11.929L8.29813 15.2623C8.11044 15.3561 7.88953 15.3561 7.70184 15.2623L1.03517 11.929C0.705855 11.7643 0.572372 11.3639 0.737032 11.0345Z" fill="#9A9CA5"/>
</svg>

<svg width="16" height="16" fill="none" xmlns="http://www.w3.org/2000/svg"><path fill-rule="evenodd" clip-rule="evenodd" d="M7.702.736a.667.667 0 01.596 0l6.667 3.334a.667.667 0 010 1.192L8.298 8.596a.667.667 0 01-.596 0L1.035 5.262a.667.667 0 010-1.192L7.702.736zm-4.878 3.93L8 7.254l5.176-2.588L8 2.078 2.824 4.666z" fill="#9A9CA5"/><path fill-rule="evenodd" clip-rule="evenodd" d="M.737 7.701a.667.667 0 01.894-.298L8 10.587l6.368-3.184a.667.667 0 11.597 1.193l-6.667 3.333a.667.667 0 01-.596 0L1.035 8.596A.667.667 0 01.737 7.7z" fill="#9A9CA5"/><path fill-rule="evenodd" clip-rule="evenodd" d="M.737 11.034a.667.667 0 01.894-.298L8 13.921l6.368-3.185a.667.667 0 11.597 1.193l-6.667 3.333a.667.667 0 01-.596 0L1.035 11.93a.667.667 0 01-.298-.895z" fill="#9A9CA5"/></svg>
